dist/img/project_visual-arts.svg

<svg width="150" height="150" viewBox="0 0 150 150" fill="none" xmlns="http://www.w3.org/2000/svg">
<circle cx="75" cy="75" r="50" fill="#233268"/>
<path d="M74.514 88.344H87.506V96H64.596V55.284H74.514V88.344Z" fill="white"/>
<mask id="mask0" mask-type="alpha" maskUnits="userSpaceOnUse" x="64" y="55" width="24" height="41">
<path d="M74.514 88.344H87.506V96H64.596V55.284H74.514V88.344Z" fill="white"/>
</mask>
<g mask="url(#mask0)">
<path d="M69.5 68.5C69.1 62.5 62.4107 59.6667 59.5774 59C59.0773 59.3333 57.8773 60.2 57.0773 61C56.0773 62 54.5774 69.5 53.5774 71C52.5774 72.5 53.0774 85.5 53.5774 91.5C54.0774 97.5 55.0774 97 56.0774 100.5C57.0774 104 64.0774 104.5 66.5774 104C68.5774 103.6 77.744 99.1667 82.0774 97L82.0888 96.9715C82.4633 96.0368 84.853 90.0725 79.5 91.5C72 93.5 71 93.5 69 91C67 88.5 69.9 74.5 69.5 68.5Z" fill="url(#paint0_linear)"/>
</g>
<defs>
<linearGradient id="paint0_linear" x1="64.5" y1="61.5" x2="81" y2="96.5" gradientUnits="userSpaceOnUse">
<stop stop-color="#FF2B2B"/>
<stop offset="1" stop-color="#FF8B8B"/>
</linearGradient>
</defs>
</svg>

<svg xmlns="http://www.w3.org/2000/svg" width="150" height="150" fill="none" xmlns:v="https://vecta.io/nano"><circle cx="75" cy="75" r="50" fill="#233268"/><path d="M74.514 88.344h12.992V96h-22.91V55.284h9.918v33.06z" fill="#fff"/><mask id="A" mask-type="alpha" maskUnits="userSpaceOnUse" x="64" y="55" width="24" height="41"><path d="M74.514 88.344h12.992V96h-22.91V55.284h9.918v33.06z" fill="#fff"/></mask><g mask="url(#A)"><path d="M69.5 68.5c-.4-6-7.089-8.833-9.923-9.5-.5.333-1.7 1.2-2.5 2-1 1-2.5 8.5-3.5 10s-.5 14.5 0 20.5 1.5 5.5 2.5 9 8 4 10.5 3.5c2-.4 11.167-4.833 15.5-7l.011-.028c.374-.935 2.764-6.899-2.589-5.472-7.5 2-8.5 2-10.5-.5s.9-16.5.5-22.5z" fill="url(#B)"/></g><defs><linearGradient id="B" x1="64.5" y1="61.5" x2="81" y2="96.5" gradientUnits="userSpaceOnUse"><stop stop-color="#ff2b2b"/><stop offset="1" stop-color="#ff8b8b"/></linearGradient></defs></svg>
